X:
T:La Sorciere Heureuse
C:Laurence Beaudry
N:© Laurence Beaudry, Reproduced with permission
Z:robin.beech@mcgill.ca
R:reel
M:4/4
L:1/8
K:G
|: DGBe d3c | BGAG BGFG | DGBe dcBc | dgfg d4 |
ecce dBBd | cAag fdcA | DGBe dcBc | BGAF [B,4G4] ::
FDA,D CDFD | GDB,D EDB,D | ADFA dcBA | BcAB G3B |
ecBc agfe | fd^cd bgec | dBBd c3A |1 BGFG A3G :|2 BGAF [B,4G4] |]

